OBS Studio/Fluent Dark Grey/window/close.svg

<svg width="24" height="24" fill="none" viewBox="0 0 24 24" xmlns="http://www.w3.org/2000/svg"><path d="m4.2097 4.3871 0.08319-0.09421c0.36049-0.36048 0.92772-0.38821 1.32-0.08319l0.09421 0.08319 6.2929 6.2921 6.2929-6.2921c0.3905-0.39052 1.0237-0.39052 1.4142 0 0.3905 0.39053 0.3905 1.0237 0 1.4142l-6.2921 6.2929 6.2921 6.2929c0.3605 0.3605 0.3882 0.9277 0.0832 1.32l-0.0832 0.0942c-0.3605 0.3605-0.9277 0.3882-1.32 0.0832l-0.0942-0.0832-6.2929-6.2921-6.2929 6.2921c-0.39053 0.3905-1.0237 0.3905-1.4142 0-0.39052-0.3905-0.39052-1.0237 0-1.4142l6.2921-6.2929-6.2921-6.2929c-0.36048-0.36049-0.38821-0.92772-0.08319-1.32l0.08319-0.09421-0.08319 0.09421z" fill="#fff"/></svg>

<svg width="24" height="24" viewBox="0 0 24 24" fill="none" xmlns="http://www.w3.org/2000/svg">
<path d="M4.2097 4.3871L4.29289 4.29289C4.65338 3.93241 5.22061 3.90468 5.6129 4.2097L5.70711 4.29289L12 10.585L18.2929 4.29289C18.6834 3.90237 19.3166 3.90237 19.7071 4.29289C20.0976 4.68342 20.0976 5.31658 19.7071 5.70711L13.415 12L19.7071 18.2929C20.0676 18.6534 20.0953 19.2206 19.7903 19.6129L19.7071 19.7071C19.3466 20.0676 18.7794 20.0953 18.3871 19.7903L18.2929 19.7071L12 13.415L5.70711 19.7071C5.31658 20.0976 4.68342 20.0976 4.29289 19.7071C3.90237 19.3166 3.90237 18.6834 4.29289 18.2929L10.585 12L4.29289 5.70711C3.93241 5.34662 3.90468 4.77939 4.2097 4.3871L4.29289 4.29289L4.2097 4.3871Z" fill="white"/>
</svg>
